static/svgs/modal/open-white.svg

<?xml version="1.0" encoding="UTF-8" standalone="no"?>
<svg width="20px" height="20px" viewBox="0 0 20 20" version="1.1" xmlns="http://www.w3.org/2000/svg" xmlns:xlink="http://www.w3.org/1999/xlink">
    <!-- Generator: Sketch 43.2 (39069) - http://www.bohemiancoding.com/sketch -->
    <title>open-modal-icon</title>
    <desc>Created with Sketch.</desc>
    <defs></defs>
    <g id="Page-1" stroke="none" stroke-width="1" fill="none" fill-rule="evenodd">
        <g id="open-modal-icon" fill="#FFFFFF">
            <path d="M16.904265,9.16353035 L15.4298099,7.69520276 L10.2383662,11.6050888 C9.64794591,12.057779 8.79050666,11.9379804 8.33625534,11.3315664 C7.9692373,10.844951 7.97668404,10.1706865 8.33625534,9.70951497 L12.2606889,4.53591307 L10.8213398,3.10151073 C10.4107052,2.6922873 10.7011281,2.00848131 11.2670806,2.00848131 L17.3585163,2 C17.709577,2.00848131 18,2.29896634 18,2.64033925 L18,8.71932149 C18,9.28332892 17.3063891,9.56427246 16.904265,9.16353035 Z M15.3807332,18 L3.03722491,18 C2.46488952,18 2,17.5367082 2,16.9652796 L2,4.66419295 C2,4.09382454 2.46488952,3.62947257 3.03722491,3.62947257 L7.82335296,3.62947257 C8.39781598,3.62947257 8.86164168,4.09382454 8.86164168,4.66419295 C8.86164168,5.23562152 8.39781598,5.69891333 7.82335296,5.69891333 L4.07657745,5.69891333 L4.07657745,15.9305592 L14.3424445,15.9305592 L14.3424445,13.2101776 C14.3424445,12.638749 14.807334,12.1754572 15.3807332,12.1754572 C15.9541324,12.1754572 16.4200857,12.638749 16.4200857,13.2101776 L16.4200857,16.9652796 C16.4200857,17.5367082 15.9541324,18 15.3807332,18 Z"></path>
        </g>
    </g>
</svg>

<svg width="20" height="20" xmlns="http://www.w3.org/2000/svg"><path d="M16.904 9.164L15.43 7.695l-5.192 3.91a1.353 1.353 0 0 1-1.902-.273 1.343 1.343 0 0 1 0-1.622l3.925-5.174-1.44-1.434a.637.637 0 0 1 .446-1.094L17.36 2a.657.657 0 0 1 .641.64v6.08c0 .563-.694.844-1.096.444zM15.381 18H3.037A1.036 1.036 0 0 1 2 16.965v-12.3c0-.571.465-1.036 1.037-1.036h4.786a1.036 1.036 0 0 1 0 2.07H4.077V15.93h10.265v-2.72c0-.572.465-1.036 1.039-1.036.573 0 1.04.464 1.04 1.035v3.755c0 .572-.467 1.035-1.04 1.035z" fill="#FFF" fill-rule="evenodd"/></svg>
